icons/inbox.svg

<svg width="24" height="24" viewBox="0 0 24 24" fill="none" xmlns="http://www.w3.org/2000/svg">
<path fill-rule="evenodd" clip-rule="evenodd" d="M2 4C2 3.44772 2.44772 3 3 3H21C21.5523 3 22 3.44772 22 4V20C22 20.5523 21.5523 21 21 21H3C2.44772 21 2 20.5523 2 20V4ZM4 5V12H8.12602C8.5823 12 8.98072 12.3089 9.09445 12.7507C9.42754 14.0449 10.6035 15 12 15C13.3965 15 14.5725 14.0449 14.9055 12.7507C15.0193 12.3089 15.4177 12 15.874 12H20V5H4ZM20 14H16.5836C15.8122 15.7655 14.0512 17 12 17C9.94877 17 8.18783 15.7655 7.41637 14H4V19H20V14Z" fill="black"/>
</svg>

<svg
  width="24"
  height="24"
  viewBox="0 0 24 24"
  xmlns="http://www.w3.org/2000/svg"
>
  <path
    fill-rule="evenodd"
    clip-rule="evenodd"
    d="M2 4a1 1 0 0 1 1-1h18a1 1 0 0 1 1 1v16a1 1 0 0 1-1 1H3a1 1 0 0 1-1-1V4zm2 1v7h4.126a1 1 0 0 1 .968.75 3.002 3.002 0 0 0 5.812 0 1 1 0 0 1 .968-.75H20V5H4zm16 9h-3.416a5 5 0 0 1-9.168 0H4v5h16v-5z"
  />
</svg>
